X:7348
%16356
T:Tellings hopsa
S:Hans Ole
R:Hopsa
O:Denmark
M:2/4
L:1/8
K:Cmaj
C | A2 B/2A/2^G/2A/2 | F2C2 | A2 B/2A/2^G/2A/2 |dc BA |\
G2A/2G/2^F/2G/2 | E2C2 | G2A/2G/2^F/2G/2| ed cB |\
A2B/2A/2^G/2A/2 | F2C
